x-pack/platform/packages/shared/kbn-inference-endpoint-ui-common/src/components/providers/assets/images/google_ai_studio.svg

<svg width="32" height="32" viewBox="0 0 32 32" fill="none" xmlns="http://www.w3.org/2000/svg">
<path d="M20.3054 10.1595H21.2814L24.063 7.35127L24.1996 6.15898C22.6062 4.73904 20.6804 3.75265 18.6044 3.293C16.5283 2.83335 14.3704 2.91561 12.3346 3.53202C10.2988 4.14842 8.45224 5.27861 6.96936 6.81583C5.48648 8.35306 4.41624 10.2466 3.85974 12.3175C4.16962 12.1892 4.5129 12.1684 4.83574 12.2584L10.399 11.3321C10.399 11.3321 10.682 10.8591 10.8284 10.8887C12.0204 9.56701 13.6678 8.7553 15.4332 8.61975C17.1986 8.48419 18.9486 9.03505 20.3249 10.1595H20.3054Z" fill="#EA4335"/>
<path d="M28.0256 12.3166C27.3863 9.93956 26.0735 7.80262 24.2485 6.16797L20.3445 10.1094C21.1581 10.7806 21.8102 11.6296 22.2514 12.5922C22.6927 13.5549 22.9117 14.6062 22.8919 15.6668V16.3664C23.3481 16.3664 23.8 16.4572 24.2215 16.6334C24.6431 16.8097 25.0261 17.0681 25.3487 17.3939C25.6714 17.7196 25.9273 18.1063 26.1019 18.5319C26.2766 18.9575 26.3664 19.4136 26.3664 19.8743C26.3664 20.335 26.2766 20.7911 26.1019 21.2167C25.9273 21.6423 25.6714 22.029 25.3487 22.3547C25.0261 22.6805 24.6431 22.9389 24.2215 23.1152C23.8 23.2914 23.3481 23.3822 22.8919 23.3822H15.9427L15.2498 24.0916V28.2991L15.9427 28.9987H22.8919C24.8324 29.014 26.7262 28.3982 28.2933 27.2426C29.8603 26.0869 31.0173 24.4528 31.593 22.5818C32.1688 20.7108 32.1328 18.7025 31.4903 16.8538C30.8479 15.0051 29.6331 13.4142 28.0256 12.3166Z" fill="#4285F4"/>
<path d="M8.98381 28.9612H15.9329V23.3446H8.98381C8.48871 23.3445 7.99942 23.237 7.54908 23.0293L6.57308 23.3348L3.77195 26.143L3.52795 27.1284C5.09876 28.3259 7.01548 28.9698 8.98381 28.9612Z" fill="#34A853"/>
<path d="M8.9838 10.7403C7.10091 10.7516 5.26856 11.3564 3.74266 12.4702C2.21676 13.5839 1.07351 15.151 0.472601 16.9526C-0.128309 18.7542 -0.156875 20.7002 0.390891 22.519C0.938658 24.3377 2.0354 25.9383 3.52794 27.0972L7.55883 23.0277C7.04659 22.7941 6.59814 22.4384 6.25197 21.9913C5.90579 21.5443 5.67222 21.019 5.5713 20.4608C5.47038 19.9025 5.50511 19.3279 5.67253 18.7861C5.83995 18.2444 6.13505 17.7518 6.53251 17.3505C6.92997 16.9492 7.41793 16.6513 7.95451 16.4823C8.4911 16.3133 9.06029 16.2782 9.61325 16.3801C10.1662 16.482 10.6864 16.7178 11.1293 17.0673C11.5721 17.4168 11.9244 17.8695 12.1558 18.3867L16.1867 14.3171C15.3406 13.2005 14.2502 12.2966 13.0007 11.6761C11.7511 11.0556 10.3763 10.7353 8.9838 10.7403Z" fill="#FBBC05"/>
</svg>

<svg xmlns="http://www.w3.org/2000/svg" width="32" height="32" fill="none"><path fill="#EA4335" d="M20.305 10.16h.976l2.782-2.809.137-1.192a12.46 12.46 0 0 0-5.596-2.866 12.4 12.4 0 0 0-6.27.239A12.5 12.5 0 0 0 6.97 6.816a12.65 12.65 0 0 0-3.11 5.502c.31-.129.654-.15.977-.06l5.563-.926s.283-.473.43-.443a6.92 6.92 0 0 1 4.604-2.27 6.9 6.9 0 0 1 4.892 1.54z"/><path fill="#4285F4" d="M28.026 12.317a12.67 12.67 0 0 0-3.777-6.149l-3.904 3.941a7 7 0 0 1 1.906 2.483c.442.963.66 2.014.64 3.075v.7a3.45 3.45 0 0 1 2.458 1.027 3.5 3.5 0 0 1 1.017 2.48 3.54 3.54 0 0 1-1.017 2.48 3.47 3.47 0 0 1-2.457 1.028h-6.95l-.692.71v4.207l.693.7h6.949a8.98 8.98 0 0 0 5.401-1.756 9.12 9.12 0 0 0 3.3-4.661 9.2 9.2 0 0 0-.103-5.728 9.1 9.1 0 0 0-3.464-4.537"/><path fill="#34A853" d="M8.984 28.961h6.949v-5.616h-6.95c-.494 0-.984-.108-1.434-.316l-.976.306-2.801 2.808-.244.985a8.93 8.93 0 0 0 5.456 1.833"/><path fill="#FBBC05" d="M8.984 10.74a8.98 8.98 0 0 0-5.241 1.73 9.1 9.1 0 0 0-3.27 4.483 9.2 9.2 0 0 0-.082 5.566 9.13 9.13 0 0 0 3.137 4.578l4.03-4.07a3.5 3.5 0 0 1-1.306-1.036 3.52 3.52 0 0 1-.58-3.205 3.5 3.5 0 0 1 .86-1.436c.398-.4.886-.699 1.423-.868a3.44 3.44 0 0 1 3.174.585c.443.35.795.802 1.027 1.32l4.03-4.07a9.05 9.05 0 0 0-3.185-2.64 8.96 8.96 0 0 0-4.017-.937"/></svg>
